<?xml version="1.0" encoding="UTF-8"?>
<map version="1.10" tiledversion="1.12.2" orientation="orthogonal" renderorder="right-down" width="50" height="30" tilewidth="16" tileheight="16" infinite="0" nextlayerid="4" nextobjectid="42">
 <tileset firstgid="1" source="../TileSets/SoftProjLevelTileSet.tsx"/>
 <layer id="2" name="Background" width="50" height="30">
  <data encoding="csv">
1823,1824,1825,1826,1827,1828,1829,1830,1831,1832,1833,1834,1823,1824,1825,1826,1827,1828,1829,1830,1831,1832,1833,1834,1823,1824,1825,1826,1823,1824,1825,1826,1827,1828,1829,1830,1831,1832,1833,1834,1825,1826,1827,1828,1829,1830,1831,1832,1833,1834,
1823,1824,1825,1826,1827,1828,1829,1830,1831,1832,1833,1834,1834,1823,1824,1825,1826,1827,1828,1829,1830,1831,1832,1833,1834,1832,1833,1823,1824,1825,1826,1827,1828,1829,1830,1831,1832,1833,1834,1824,1825,1826,1827,1828,1829,1830,1831,1832,1833,1834,
1823,1824,1825,1826,1827,1828,1829,1830,1831,1832,1833,1834,1829,1830,1831,1832,1833,1823,1824,1825,1826,1823,1824,1825,1826,1827,1828,1829,1830,1831,1832,1833,1834,1824,1825,1826,1827,1828,1829,1830,1831,1823,1824,1825,1826,1827,1828,1829,1830,1831,
1823,1824,1825,1826,1827,1828,1829,1830,1831,1832,1833,1834,1827,1828,1829,1830,1831,1823,1824,1825,1826,1827,1828,1829,1830,1831,1832,1833,1834,1827,1828,1829,1830,1831,1832,1833,1834,1827,1828,1829,1823,1824,1825,1826,1827,1828,1829,1830,1831,1832,
1827,1828,1829,1830,1831,1832,1833,1834,1824,1825,1826,1827,1828,1829,1830,1831,1832,1823,1824,1825,1826,1827,1828,1829,1830,1831,1832,1833,1834,1831,1832,1833,1834,1828,1829,1830,1831,1832,1833,1823,1824,1825,1826,1827,1828,1829,1830,1831,1832,1833,
1823,1824,1825,1826,1827,1828,1829,1830,1831,1832,1833,1834,1823,1824,1825,1826,1827,1828,1829,1823,1824,1825,1826,1827,1828,1829,1830,1831,1832,1833,1834,1826,1827,1828,1829,1830,1831,1832,1833,1823,1824,1825,1826,1827,1828,1829,1830,1831,1832,1833,
1824,1825,1826,1827,1828,1829,1830,1831,1832,1833,1834,1827,1828,1829,1830,1831,1823,1824,1825,1826,1827,1828,1829,1830,1831,1832,1833,1834,1829,1830,1831,1832,1833,1834,1825,1826,1827,1828,1829,1830,1823,1824,1825,1826,1827,1828,1829,1830,1831,1832,
1823,1824,1825,1826,1827,1828,1829,1830,1831,1832,1833,1834,1827,1828,1829,1830,1831,1832,1833,1834,1824,1825,1826,1827,1828,1829,1830,1823,1824,1825,1826,1827,1828,1829,1830,1831,1832,1833,1834,1830,1831,1832,1833,1834,1827,1828,1829,1830,1831,1832,
1825,1826,1827,1828,1829,1830,1831,1832,1833,1834,1824,1825,1826,1827,1828,1829,1830,1831,1832,1833,1834,1827,1828,1829,1830,1831,1832,1823,1824,1825,1826,1827,1828,1829,1830,1831,1832,1833,1834,1830,1823,1824,1825,1826,1827,1828,1829,1830,1831,1832,
1824,1825,1826,1827,1828,1829,1830,1831,1832,1833,1834,1828,1829,1830,1831,1832,1833,1834,1823,1824,1825,1826,1827,1828,1829,1823,1823,1824,1825,1826,1827,1828,1829,1830,1831,1832,1833,1834,1830,1831,1823,1824,1825,1826,1827,1828,1829,1830,1831,1832,
1825,1826,1827,1828,1829,1830,1831,1832,1833,1834,1829,1830,1831,1832,1833,1834,1824,1825,1826,1827,1828,1829,1830,1831,1832,1833,1834,1823,1824,1825,1826,1827,1828,1829,1830,1831,1832,1833,1823,1824,1825,1826,1827,1828,1829,1830,1831,1832,1833,1834,
1823,1824,1825,1826,1827,1828,1829,1830,1823,1824,1825,1826,1827,1828,1829,1830,1831,1832,1833,1834,1828,1829,1830,1831,1832,1833,1834,1825,1826,1827,1828,1829,1830,1831,1823,1823,1824,1825,1826,1827,1828,1829,1830,1823,1824,1825,1826,1827,1828,1829,
1823,1824,1825,1826,1827,1828,1829,1830,1831,1832,1833,1834,1824,1825,1823,1824,1825,1826,1827,1828,1829,1830,1831,1832,1833,1834,1824,1825,1826,1827,1828,1829,1830,1831,1832,1833,1834,1823,1824,1825,1826,1827,1828,1829,1830,1823,1824,1825,1826,1827,
1823,1824,1825,1826,1827,1828,1829,1830,1831,1832,1833,1834,1828,1829,1830,1823,1824,1825,1826,1827,1828,1829,1830,1831,1832,1833,1834,1831,1832,1833,1834,1829,1830,1831,1832,1823,1824,1825,1826,1827,1828,1829,1830,1831,1832,1833,1834,1828,1829,1830,
1823,1824,1825,1826,1827,1828,1829,1830,1831,1832,1833,1823,1824,1825,1826,1827,1828,1829,1830,1831,1832,1833,1834,1825,1823,1824,1825,1826,1827,1828,1829,1830,1831,1832,1833,1823,1824,1825,1826,1827,1828,1829,1830,1831,1832,1833,1834,1829,1830,1831,
1823,1824,1825,1826,1827,1828,1829,1830,1831,1832,1833,1823,1824,1825,1826,1827,1828,1829,1830,1831,1832,1833,1834,1833,1823,1824,1825,1826,1827,1828,1829,1830,1831,1832,1823,1824,1825,1826,1827,1828,1823,1824,1825,1826,1827,1828,1829,1830,1831,1832,
1823,1824,1825,1826,1827,1828,1829,1830,1831,1832,1833,1823,1824,1825,1826,1827,1828,1829,1830,1831,1832,1833,1834,1828,1829,1830,1831,1832,1823,1824,1825,1826,1827,1828,1829,1830,1831,1832,1833,1823,1824,1825,1826,1827,1828,1829,1830,1831,1832,1833,
1823,1824,1825,1826,1827,1828,1829,1830,1831,1832,1833,1823,1824,1825,1826,1827,1828,1829,1830,1831,1832,1833,1834,1831,1832,1833,1834,1829,1823,1824,1825,1826,1827,1828,1829,1830,1831,1832,1833,1834,1824,1825,1826,1827,1828,1829,1830,1831,1832,1833,
1823,1824,1825,1826,1827,1828,1829,1830,1831,1832,1833,1823,1824,1825,1826,1827,1828,1829,1830,1831,1832,1833,1834,1830,1831,1832,1833,1834,1823,1824,1825,1826,1827,1828,1829,1830,1831,1832,1833,1834,1832,1833,1834,1828,1829,1830,1831,1832,1833,1834,
1823,1824,1825,1826,1827,1828,1829,1830,1831,1832,1823,1824,1825,1826,1827,1828,1829,1830,1831,1832,1833,1834,1828,1829,1830,1831,1832,1823,1824,1825,1826,1827,1828,1829,1830,1831,1832,1833,1834,1823,1824,1825,1826,1827,1828,1829,1830,1831,1832,1833,
1823,1824,1825,1826,1827,1828,1829,1830,1831,1832,1833,1834,1826,1827,1828,1829,1830,1831,1832,1823,1824,1825,1826,1827,1828,1829,1830,1831,1832,1833,1834,1826,1827,1828,1829,1830,1831,1832,1833,1823,1824,1825,1826,1827,1828,1829,1830,1831,1832,1833,
1823,1824,1825,1826,1827,1828,1829,1830,1831,1832,1833,1823,1824,1825,1826,1827,1828,1829,1830,1831,1832,1833,1834,1829,1830,1831,1832,1833,1834,1832,1833,1823,1824,1823,1824,1825,1826,1827,1828,1829,1830,1831,1832,1833,1834,1830,1831,1832,1833,1834,
1823,1824,1825,1826,1827,1828,1829,1830,1831,1832,1833,1823,1824,1825,1826,1827,1828,1829,1830,1831,1832,1833,1834,1829,1830,1831,1823,1824,1825,1826,1827,1828,1829,1830,1831,1832,1833,1834,1830,1831,1832,1833,1834,1827,1828,1829,1830,1831,1832,1833,
1824,1825,1826,1827,1828,1829,1830,1831,1832,1833,1834,1833,1834,1832,1833,1834,1829,1830,1831,1832,1833,1834,1823,1824,1825,1826,1827,1828,1829,1823,1824,1825,1826,1827,1828,1829,1830,1831,1832,1833,1834,1824,1825,1826,1827,1828,1829,1830,1831,1832,
1824,1825,1826,1827,1828,1829,1830,1831,1832,1833,1834,1833,1834,1833,1834,1828,1829,1830,1831,1832,1833,1834,1823,1824,1825,1826,1827,1828,1823,1824,1825,1826,1827,1828,1829,1823,1824,1825,1826,1823,1824,1825,1826,1827,1828,1829,1830,1831,1832,1833,
1823,1824,1825,1826,1827,1828,1829,1830,1831,1832,1833,1834,1831,1832,1833,1834,1834,1830,1831,1832,1833,1834,1823,1824,1825,1826,1827,1828,1829,1830,1831,1823,1824,1825,1826,1827,1828,1829,1823,1824,1825,1826,1827,1828,1829,1830,1831,1832,1833,1834,
0,1823,1824,1825,1826,1827,1828,1829,1830,1831,1832,1833,1834,1830,1831,1832,1833,1834,1831,1832,1833,1834,1823,1824,1825,1826,1827,1828,1829,1830,1831,1832,1833,1834,1831,1823,1824,1825,1826,1827,1828,1829,1830,1831,1832,1833,1834,1832,1833,1834,
0,0,0,1823,1824,1825,1826,1827,1828,1829,1830,1831,1832,1833,1834,1828,1829,1830,1831,1832,1833,1834,1823,1824,1825,1826,1827,1828,1829,1830,1831,1832,1833,1834,1823,1824,1825,1826,1827,1828,1829,1830,1831,1832,1833,1834,0,0,0,0,
0,0,0,0,0,0,0,0,0,0,0,0,0,0,0,0,0,0,0,0,0,0,0,0,0,0,0,0,0,0,0,0,0,0,0,0,0,0,0,0,0,0,0,0,0,0,0,0,0,0,
0,0,0,0,0,0,0,0,0,0,0,0,0,0,0,0,0,0,0,0,0,0,0,0,0,0,0,0,0,0,0,0,0,0,0,0,0,0,0,0,0,0,0,0,0,0,0,0,0,0
</data>
 </layer>
 <layer id="1" name="Ground" width="50" height="30">
  <data encoding="csv">
0,0,0,0,0,0,0,0,0,0,0,0,0,0,0,0,0,0,0,0,0,0,0,0,0,0,0,0,0,0,0,0,0,0,0,0,0,0,0,0,0,0,0,0,0,0,0,0,0,0,
0,0,0,0,0,0,0,0,0,0,0,0,0,0,0,0,0,0,0,0,0,0,0,0,0,0,0,0,0,0,0,0,0,0,0,0,0,0,0,0,0,0,0,0,0,0,0,0,0,0,
0,0,0,0,0,0,0,0,0,0,0,0,0,0,0,0,0,0,0,0,0,0,0,0,0,0,0,0,0,0,0,0,0,0,0,0,0,0,0,0,0,0,0,0,0,0,0,0,0,0,
0,0,0,0,0,0,0,0,0,0,0,0,0,0,0,0,0,0,0,0,0,0,0,0,0,0,0,0,0,0,0,0,0,0,0,0,0,0,0,0,0,0,0,0,0,0,0,0,0,0,
0,0,2707,2708,0,0,0,0,0,0,0,0,0,0,0,0,0,0,0,0,0,0,0,0,0,0,0,0,0,0,0,0,0,0,0,0,0,0,0,0,0,0,0,0,0,0,0,0,0,0,
2797,2798,2793,2794,2795,2796,2797,2798,2524,2525,2526,0,0,0,0,0,0,0,0,0,0,0,0,0,0,0,0,0,0,0,0,0,0,0,0,0,0,0,0,0,0,0,0,0,0,0,0,0,0,0,
2875,2876,2877,2878,2879,2880,2881,2882,2608,2609,2610,0,0,0,0,0,0,0,0,0,0,0,0,0,0,0,0,0,0,0,0,0,0,0,0,0,0,0,0,0,0,0,0,0,0,0,0,0,0,0,
2858,2858,2858,2858,2858,2858,2858,2858,2858,2696,2696,0,0,0,0,0,0,0,0,0,0,0,0,0,0,0,0,0,0,0,0,0,0,0,0,0,0,0,0,0,0,0,0,0,0,0,0,0,0,0,
2858,2858,2858,2858,2858,2858,2858,3477,3478,3479,0,0,0,0,0,0,0,0,0,0,0,0,0,0,0,0,0,0,0,0,0,0,0,0,0,0,0,0,0,0,0,0,0,0,0,0,0,0,0,0,
2858,2858,2858,2858,2858,2858,3560,3561,3562,0,0,0,0,0,0,0,0,0,0,0,0,0,0,0,0,0,0,0,0,0,0,0,0,0,0,0,0,0,0,0,0,0,0,0,0,0,0,0,0,0,
2858,2858,2858,2858,2858,2858,3644,3645,3646,0,0,0,0,0,0,0,0,0,0,0,0,0,0,0,0,0,0,0,0,0,0,0,0,0,0,0,0,0,0,0,0,0,0,0,0,0,0,0,0,0,
2858,2858,2858,2858,2858,2858,3728,3729,3730,0,0,0,0,0,0,0,0,0,0,0,0,0,0,0,0,0,0,0,0,0,0,0,0,0,0,0,0,0,0,0,0,0,2637,2793,2794,2795,2796,2797,2798,2793,
2858,2858,2858,2858,2858,2858,3812,3813,3814,0,0,0,0,0,0,0,0,0,0,0,0,0,0,0,0,0,0,0,0,0,0,0,0,0,0,0,0,0,0,0,2474,2475,2721,4219,4220,4221,4222,4223,4224,4224,
2858,2858,2858,2858,2858,2858,3896,3897,3898,0,0,0,0,0,0,0,0,0,0,0,0,0,0,0,0,0,0,0,0,0,0,0,0,0,0,0,0,0,2555,2556,2557,2641,4219,4220,4221,5211,5211,5211,5211,506,
2858,2858,2858,2858,2858,2858,3116,2787,2788,2789,2790,2791,2787,2787,2788,3058,3059,0,0,0,0,0,0,0,0,0,0,0,0,0,0,0,0,0,0,0,0,2637,2639,2640,2641,4219,4220,5211,5211,5211,5211,5211,5211,0,
2858,2858,2858,2858,2858,2858,3116,2871,2872,2873,2874,2875,2609,2609,2609,3142,3143,0,0,0,0,0,0,0,0,0,0,0,0,0,0,0,0,0,0,2718,2719,2721,4219,4220,4221,4222,5211,5211,506,506,506,506,506,506,
2858,2858,2858,2858,2858,2858,2858,2858,2858,2858,2858,2858,2858,2858,2858,3310,3311,0,0,0,0,0,3115,2787,2788,2789,2790,2791,2792,2793,2794,2795,2796,2797,2798,2802,4315,4219,4220,4221,4222,4223,4224,4225,4226,4217,4218,4219,4219,4220,
4215,4216,4217,4218,4219,4220,4221,4222,4223,4224,4225,4226,4224,4225,4226,3394,3395,0,0,0,0,0,3283,3284,2872,2873,2874,2875,2876,2877,2878,2879,2880,2881,3310,3311,4399,4303,4304,4305,4306,4307,4308,4309,4310,4301,4302,4303,4303,4304,
4299,4300,4301,4302,4303,4304,4305,4306,4307,4308,4309,4310,4308,4309,4310,3478,3479,0,0,0,0,0,3367,4215,4216,4217,4218,4219,4220,4221,4222,4223,4224,4225,3394,3395,0,4387,4388,4389,4390,4391,4392,4393,4394,0,0,0,4387,4388,
0,0,0,0,0,4389,4390,0,0,0,0,0,0,0,4389,4390,0,0,0,0,0,0,3451,4299,4300,4301,4302,4303,4304,4305,4306,4307,4308,4309,3478,3479,0,0,0,0,0,0,0,0,0,0,0,0,0,0,
0,0,0,0,0,0,0,0,0,0,0,0,0,0,0,0,0,0,0,0,0,0,0,0,0,0,0,0,0,0,0,0,0,0,0,0,0,0,0,0,0,0,0,0,0,0,0,0,0,0,
0,0,0,0,0,0,0,0,0,0,0,0,0,0,0,0,0,0,0,0,0,0,0,0,0,0,0,0,0,0,0,0,0,0,0,0,0,0,0,0,0,0,0,0,0,0,0,0,0,0,
0,0,0,0,0,0,0,0,0,0,0,0,0,0,0,0,0,0,0,0,0,0,0,0,0,0,0,0,0,0,0,0,0,0,0,0,0,0,0,0,0,0,0,0,0,0,0,0,0,0,
0,0,0,0,0,0,0,0,0,0,0,0,0,0,0,0,0,0,0,0,0,0,0,0,0,0,0,0,0,0,0,0,0,0,0,0,0,0,0,0,0,0,0,0,0,0,0,0,0,0,
2438,0,0,0,0,0,0,0,0,0,0,0,0,0,0,0,0,0,0,0,0,0,0,0,0,0,0,0,0,0,0,0,0,0,0,0,0,0,0,0,0,0,0,0,0,0,0,0,0,2475,
3116,2524,2525,2526,0,0,0,0,0,0,0,0,0,0,0,0,0,0,0,0,0,0,0,0,0,0,0,0,0,0,0,0,0,0,0,0,0,0,0,0,0,0,0,0,0,0,2555,2556,2557,2783,
2858,2608,2609,2610,2612,0,0,0,0,0,0,0,0,0,0,0,0,0,0,0,0,0,0,0,0,0,0,0,0,0,0,0,0,0,0,0,0,0,0,0,0,0,0,0,0,2637,2639,2640,2641,2783,
2858,2942,3116,3116,2696,2698,2699,2703,2704,2705,2706,0,2708,2709,2710,2711,2712,2703,2704,2705,2706,0,2708,2709,2710,2711,2712,2703,2704,2705,2706,0,2708,2709,2710,2711,2712,2713,2714,0,0,0,0,2718,2719,2721,2640,2783,2640,2858,
2858,2858,2942,3116,3116,2782,2783,2787,2788,2789,2790,2791,2792,2793,2794,2795,2796,2787,2788,2789,2790,2791,2792,2793,2794,2795,2796,2787,2788,2789,2790,2791,2792,2793,2794,2795,2796,2797,2794,2795,2796,2797,2798,2802,2803,2640,2640,2858,2858,2858,
2858,2942,2858,2942,3116,3116,2867,2871,2872,2873,2874,2875,2876,2877,2878,2871,2872,2873,2874,2875,2876,2877,2878,2871,2872,2873,2874,2875,2876,2877,2878,2879,2880,2881,2882,2875,2876,2877,2878,2879,2880,2881,2882,2886,2640,2783,2858,2858,2858,2858
</data>
 </layer>
 <objectgroup id="3" name="Collision">
  <object id="1" x="-1" y="79" width="174" height="29"/>
  <object id="2" x="103" y="129" width="22" height="94"/>
  <object id="3" x="125" y="128" width="34" height="14"/>
  <object id="5" x="125" y="223" width="129" height="18"/>
  <object id="6" x="255" y="238" width="18" height="65"/>
  <object id="8" x="0" y="284" width="254" height="21"/>
  <object id="9" x="687" y="175" width="115" height="18"/>
  <object id="10" x="113" y="446" width="574" height="17"/>
  <object id="11" x="352" y="254" width="207" height="21"/>
  <object id="12" x="352" y="277" width="19" height="44"/>
  <object id="13" x="369" y="302" width="206" height="16"/>
  <object id="14" x="577" y="268" width="222" height="20"/>
  <object id="22" x="560" y="251" width="34" height="14"/>
  <object id="23" x="592" y="229" width="19" height="19"/>
  <object id="24" x="612" y="213" width="42" height="16"/>
  <object id="25" x="654" y="197" width="18" height="16"/>
  <object id="26" x="672" y="178" width="13" height="19"/>
  <object id="27" x="96" y="446" width="17" height="17"/>
  <object id="28" x="64" y="425" width="32" height="21"/>
  <object id="29" x="17" y="404" width="47" height="21"/>
  <object id="30" x="-1" y="388" width="18" height="16"/>
  <object id="31" x="686" y="445" width="19" height="18"/>
  <object id="32" x="704" y="426" width="33" height="19"/>
  <object id="33" x="737" y="411" width="33" height="15"/>
  <object id="34" x="770" y="398" width="17" height="13"/>
  <object id="35" x="786" y="384" width="12" height="10"/>
  <object id="36" x="795" y="1" width="5" height="172"/>
  <object id="37" x="-5" y="-2" width="10" height="79"/>
  <object id="38" x="1" y="305" width="1" height="80"/>
  <object id="39" x="797" y="291" width="3" height="89"/>
  <object id="40" x="799" y="197" width="1" height="69"/>
  <object id="41" x="2" y="111" height="171"/>
 </objectgroup>
</map>
