<?xml version="1.0" encoding="UTF-8"?>
<map version="1.10" tiledversion="1.12.2" orientation="orthogonal" renderorder="right-down" width="50" height="30" tilewidth="16" tileheight="16" infinite="0" nextlayerid="6" nextobjectid="62">
 <tileset firstgid="1" source="../TileSets/SoftProjLevelTileSet.tsx"/>
 <imagelayer id="5" name="Background3" repeatx="1">
  <image source="../../../../../SoftEngAssets/PixelPlatformerSet2v.1.1/Background/background1.png" width="426" height="384"/>
 </imagelayer>
 <imagelayer id="4" name="background2" offsetx="0" offsety="36" repeatx="1">
  <image source="../../../../../SoftEngAssets/PixelPlatformerSet2v.1.1/Background/background2.png" width="426" height="384"/>
 </imagelayer>
 <imagelayer id="3" name="Background1" offsetx="0" offsety="100" repeatx="1">
  <image source="../../../../../SoftEngAssets/PixelPlatformerSet2v.1.1/Background/background6.png" width="426" height="384"/>
 </imagelayer>
 <layer id="1" name="Ground" width="50" height="30">
  <data encoding="csv">
0,0,0,0,0,0,0,0,0,0,0,0,0,0,0,0,0,0,0,0,0,0,0,0,0,0,0,0,0,0,0,0,0,0,0,0,0,0,0,0,0,0,0,0,0,0,0,0,0,0,
0,0,0,0,0,0,0,0,0,0,0,0,0,0,0,0,0,0,0,0,0,0,0,0,0,0,0,0,0,0,0,0,0,0,0,0,0,0,0,0,0,0,0,0,0,0,0,0,0,0,
0,0,0,0,0,0,0,0,0,0,0,0,0,0,0,0,0,0,0,0,0,0,0,0,0,0,0,0,0,0,0,0,0,0,0,0,0,0,0,0,0,0,0,0,0,0,0,0,0,0,
0,0,0,0,0,0,0,0,0,0,0,0,0,0,0,0,0,0,0,0,0,0,0,0,0,0,0,0,0,0,0,0,0,0,0,0,0,0,0,0,0,0,0,0,0,0,0,0,0,0,
0,0,0,0,0,0,0,0,0,0,0,0,0,0,0,0,0,0,0,0,0,0,0,0,0,0,0,0,0,0,0,0,0,0,0,0,0,0,0,0,0,0,0,0,0,0,0,0,0,0,
0,0,0,0,0,0,0,0,0,0,0,0,0,0,0,0,0,0,0,0,0,0,0,0,0,0,0,0,0,0,0,0,0,0,0,0,0,0,0,0,0,0,0,0,0,0,0,0,0,0,
0,0,0,0,0,0,0,0,0,0,0,0,0,0,0,0,0,0,0,0,0,0,0,0,0,0,0,0,0,0,0,0,0,0,0,0,0,0,0,0,0,0,0,0,0,0,0,0,0,0,
0,0,0,0,0,0,0,0,0,0,0,0,0,0,0,0,0,0,0,0,0,0,0,0,0,0,0,0,0,0,0,0,0,0,0,0,0,0,0,0,0,0,0,0,0,0,0,0,0,0,
0,0,0,0,0,0,0,0,0,0,0,0,0,0,0,0,0,0,0,0,0,0,0,0,0,0,0,0,0,0,0,0,0,0,0,0,0,0,0,0,0,0,0,0,0,0,0,0,0,0,
0,0,0,0,0,0,0,0,0,0,0,0,0,0,0,1036,1037,1038,1446,1447,1448,1449,1450,1451,1452,1453,1454,1449,1450,1451,1452,1453,1454,1445,1446,1447,1448,1449,1450,1451,1452,1453,1454,1194,1195,0,0,0,0,0,
0,0,0,0,0,0,0,0,0,0,0,0,0,1199,1200,1120,1121,1122,1531,1532,1533,506,506,506,506,506,1529,506,506,506,506,1534,1535,1536,1529,1530,1531,1532,1533,1534,1535,1536,1537,1799,1457,0,0,0,0,0,
0,0,0,0,0,0,0,0,0,0,0,0,0,1441,506,506,506,506,506,506,506,506,506,506,506,506,506,506,506,506,506,506,506,506,506,1538,1530,506,506,506,506,1535,1536,1771,2108,0,0,0,0,0,
0,0,0,0,0,0,0,0,0,0,0,0,0,1015,1016,1017,506,506,1865,1866,1867,1868,1869,1870,1871,1872,1873,1874,1863,1864,1865,1866,1867,1868,506,506,506,506,1873,1874,2104,2105,2106,2108,0,0,0,0,0,0,
0,0,0,0,0,0,0,0,0,442,443,444,0,1099,1100,1101,1102,1948,1949,1950,1951,1952,1953,1954,1955,1956,1957,1958,1947,1948,1949,1950,1951,1952,1953,1954,1955,1956,1957,1958,2188,2189,2190,0,0,0,0,0,0,0,
0,0,0,0,0,0,0,0,0,2047,527,2108,0,0,0,0,2031,2032,2033,2034,2035,2036,2037,2038,2039,2040,2041,2042,2031,2032,2033,2034,2035,2036,2037,0,2039,2040,2041,2042,0,0,0,0,0,0,0,0,0,0,
0,0,0,0,0,0,0,0,0,0,0,0,0,0,0,0,0,0,0,0,0,0,0,0,0,0,0,0,0,0,0,0,0,0,0,0,0,0,0,0,0,0,0,0,0,0,0,2555,2556,2557,
0,0,0,0,0,0,0,0,0,0,0,0,0,0,0,0,0,0,0,0,0,0,0,0,0,0,0,0,0,0,0,0,0,0,0,0,0,0,0,0,0,0,0,0,0,0,2637,2639,2640,2641,
442,443,444,445,446,260,0,0,0,0,0,0,0,0,0,0,0,0,0,0,0,0,0,0,0,0,0,0,0,0,0,0,0,0,0,0,0,0,0,0,0,0,0,0,0,0,3283,2858,2858,2858,
523,524,525,526,527,959,0,0,0,0,0,0,0,0,0,0,0,0,0,0,0,0,0,0,0,0,0,0,0,0,0,0,0,0,0,0,0,0,0,0,0,0,0,0,0,0,3451,3452,3453,2858,
590,526,527,1041,1042,1043,1044,0,0,0,0,0,0,0,0,0,0,0,0,0,0,0,0,0,0,0,0,0,0,0,0,0,0,0,0,0,0,0,0,0,0,0,0,0,0,0,0,0,0,2858,
526,507,1124,1125,1126,1127,0,441,442,443,444,0,0,0,0,0,0,0,0,0,441,442,443,444,0,0,0,0,442,443,444,445,1942,1943,0,0,0,0,0,0,0,0,0,0,0,0,0,0,0,2858,
590,507,1208,1209,0,0,0,2047,526,527,2108,0,0,0,0,0,0,0,0,0,2047,526,527,2108,0,0,0,0,2133,527,528,525,2026,2027,0,0,0,0,0,0,0,0,0,0,0,0,0,0,0,2858,
590,507,1292,1293,0,0,0,0,0,0,0,0,441,442,443,444,0,0,0,0,0,0,0,0,0,0,0,0,0,0,0,0,0,0,0,0,0,0,0,0,0,0,0,0,0,0,0,0,0,2858,
590,526,527,1377,1378,0,0,0,0,0,0,0,2047,526,527,2108,0,0,0,0,0,0,0,0,0,0,0,0,0,0,0,0,0,0,0,0,0,0,441,442,443,444,0,0,0,0,0,203,204,2858,
590,527,1460,1461,0,0,0,0,0,0,0,0,0,0,0,0,0,0,0,0,0,0,0,0,0,0,0,0,0,0,0,0,0,1546,0,0,0,0,2047,526,527,2108,0,0,0,0,285,287,288,289,
526,527,1544,1545,0,0,0,0,0,0,0,0,0,0,0,0,0,0,0,0,0,0,0,0,0,0,0,0,0,0,0,0,0,0,0,0,0,0,0,0,0,0,0,0,366,367,369,450,451,451,
506,2024,2026,2027,0,0,0,0,0,0,0,0,0,0,0,0,0,0,0,0,0,0,0,0,0,0,0,0,0,0,0,0,0,0,0,1036,1037,1038,1447,1447,1451,1452,1453,1454,450,451,528,529,528,529,
506,2108,0,0,0,0,0,0,0,0,0,0,0,0,0,0,0,0,0,0,0,0,0,0,0,0,0,0,0,0,0,0,0,1199,1200,1120,1121,1122,1534,1535,1536,1537,1538,1539,534,450,451,526,527,528,
506,260,0,0,0,0,0,0,0,0,0,0,0,1118,1444,1445,1446,1447,1448,1449,1450,1451,1452,1453,1454,1455,1444,1445,1446,1447,1448,1449,1450,1283,1530,1531,1532,1533,1534,1535,1536,1533,1534,1535,1536,1532,1533,1534,1535,1536,
435,436,437,438,439,440,441,442,443,444,445,446,446,1527,1528,1529,1530,1531,1532,1527,1528,1529,1530,1531,1532,1533,1534,1535,1536,1537,1538,1539,1533,1534,1535,1536,1537,1530,1530,1530,1531,1532,1533,1534,1535,1536,1535,1536,1537,1538
</data>
 </layer>
 <objectgroup id="2" name="Collision">
  <object id="4" x="32" y="463.333" width="175.333" height="16.6667"/>
  <object id="5" x="207.333" y="448" width="322" height="15.3333"/>
  <object id="6" x="528.667" y="432" width="31.3333" height="16.6667"/>
  <object id="7" x="560.667" y="415.333" width="47.3333" height="16.6667"/>
  <object id="8" x="608.667" y="415.333" width="94" height="17.3333"/>
  <object id="9" x="704" y="400" width="32" height="14.6667"/>
  <object id="21" x="13.3333" y="418" width="17.3333" height="44.6667"/>
  <object id="22" x="32" y="416" width="30" height="14"/>
  <object id="23" x="45.3333" y="336" width="16.6667" height="80"/>
  <object id="24" x="62.6667" y="319.333" width="33.3333" height="16.6667"/>
  <object id="25" x="80" y="272" width="16" height="47.3333"/>
  <object id="26" x="-0.666667" y="272" width="80.6667" height="17.3333"/>
  <object id="28" x="112.667" y="320" width="64" height="32"/>
  <object id="29" x="192" y="352" width="64.6667" height="31.3333"/>
  <object id="30" x="320" y="320" width="64" height="31.3333"/>
  <object id="32" x="608" y="367.333" width="64.6667" height="32.6667"/>
  <object id="33" x="143.333" y="208.667" width="49.3333" height="30.6667"/>
  <object id="34" x="208" y="207.333" width="479.333" height="15.3333"/>
  <object id="35" x="208.667" y="167.333" width="15.3333" height="38"/>
  <object id="36" x="224" y="158.667" width="16.6667" height="16.6667"/>
  <object id="37" x="240.667" y="142.667" width="464" height="15.3333"/>
  <object id="38" x="704.667" y="158.667" width="14" height="32"/>
  <object id="41" x="687.333" y="191.333" width="16.6667" height="17.3333"/>
  <object id="50" x="736" y="288" width="48.5" height="16.5"/>
  <object id="51" x="736" y="256.5" width="17" height="31.5"/>
  <object id="52" x="753" y="239.5" width="47.5" height="17"/>
  <object id="53" x="448" y="320" width="64" height="31"/>
  <object id="54" x="513.5" y="320" width="29.5" height="15.5"/>
  <object id="56" x="737" y="383" width="63" height="18"/>
  <object id="58" x="793" y="322" width="6" height="41"/>
  <object id="59" x="0" y="291" width="4" height="170"/>
  <object id="60" x="1" y="2" width="2" height="269"/>
  <object id="61" x="794" y="0" width="5" height="238"/>
 </objectgroup>
</map>
